X:1
T:Hull, 87.87.87 D
T:Hull, 87.87.87 D
T:Asa Hull, 1869, 1879
T:Public Domain Courtesy of the Cyber Hymnal™
C:Asa Hull, 1869, 1879
Z:Public Domain
Z:Courtesy of the Cyber Hymnal™
%%score ( 1 2 ) ( 3 4 )
L:1/8
Q:1/4=100
M:3/4
K:E
V:1 treble 
V:2 treble 
V:3 bass 
V:4 bass 
V:1
 G2 | G3 G AG | (GF) F2 z F | F3 E GF | E4 G2 | G3 G AG | (GF) F2 z F | F3 E GF | %8
 E4"^Semi-Chorus" [GB]2 | [GB]3 [GB] [FA][EG] | ([Ac][GB]) [GB]2 (Be) | [Fd]3 [GB] [Ac][Ad] | %12
 [Ge]4 [GB]2 | [Ge][Ge] [Ge]2 [GB]2 | [Bd][Ac] [Ac]2 (3(cde) | [GB]3 [EG] [EG][DF] | E4 [GB]2 | %17
 [GB]3 [GB] [Ac][GB] | ([GB]>[FA]) [EG]2 [Ge]2 | [Ge]3 [Fd] [Ec][Ad] | [Ge]4 [GB]2 | %21
 [Ge][Ge] [Ge]2 [GB]2 | ([Bd][Ac]) [Ac]2 (3(cde) | [GB]3 [EG] [EG][DF] | E4 |] %25
V:2
 x2 | x6 | x6 | x6 | x6 | x6 | x6 | x6 | x6 | x6 | x4 G2 | x6 | x6 | x6 | x4 A2 | x6 | E4 x2 | x6 | %18
 x6 | x6 | x6 | x6 | x4 A2 | x6 | E4 |] %25
V:3
 B,2 | B,3 B, CB, | (B,A,) A,2 z A, | A,3 G, B,A, | [E,G,]4 B,2 | B,3 B, CB, | (B,A,) A,2 z A, | %7
 A,3 G, B,A, | [E,G,]4 [E,E]2 | [E,E]3 [E,E] [E,B,][E,B,] | [E,E]2 [E,E]2 [E,B,]2 | %11
 [B,,B,]3 [B,,B,] [B,,B,][B,,B,] | [E,B,]4 [E,B,]2 | [E,B,][E,B,] [E,B,]2 [E,E]2 | %14
 [A,E]2 [A,E]2 [A,E]2 | [B,E]3 B, [B,,B,][B,,A,] | [E,G,]4 [E,E]2 | [E,E]3 [E,E] [E,E][E,E] | %18
 [E,E]2 [E,B,]2 [E,B,]2 | [B,,B,]3 [B,,B,] [B,,B,][B,,B,] | [E,B,]4 [E,B,]2 | %21
 [E,B,][E,B,] [E,B,]2 [E,E]2 | [A,E]2 [A,E]2 [A,E]2 | [B,E]3 B, [B,,B,][B,,A,] | [E,G,]4 |] %25
V:4
 x2 | E,6 | B,,4 x2 | B,,6 | x6 | E,6 | B,,4 x2 | B,,6 | x6 | x6 | x6 | x6 | x6 | x6 | x6 | %15
 x3 B, x2 | x6 | x6 | x6 | x6 | x6 | x6 | x6 | x3 B, x2 | x4 |] %25

